X:1
T:All Used Up
M:6/8
L:1/8
K:F
 C| C C3/2 D/2 CCC| CCD C2 B| BBB BBA| G3/2 G/2 G G2 F/2G/2| AAA AGF|\
 FFE D2 D| CCC E2 F| F3- F2 F| FDE FED| CCD C2 F| FDE FEF| GGG G2 G|\
 AAA AGF| FFF D2 D| CCC E2 F| F3- F2||
